X:10
T:Miss Stewart Dowally's Jigg
C:Robert Petrie
S:Petrie's Collection of Strathspey Reels and Country Dances &c., 1790
Z:Steve Wyrick , 3/20/04
N:Petrie's First Collection, page 5
L:1/8
V:1 name = "violin"
V:2 name = "bass" clef=bass middle=d transpose=-24
M:6/8
R:Jig
K:Am
[V:1] A/B/|Tc2A ABA|E2A ABc|TBAB GBc|dBG GAB|
[V:2]    z|A3  (c3 |c3) cBA| G3  g3 |b3  g3 |
[V:1] Tc2A ABA|EAB cde|def efd|cAA A2:|
[V:2]  a3  A3 |c3  A3 |B3  e3 |A3  A2:|
[V:1] B|cea cea|cea edc|Bdg Bdg|edc BAG|
[V:2] z|A3  a3 |a3  a3 |g3  g3 |g3  G3 |
[V:1] cea cea|cde def |edc dcB|cAA A2B|
[V:2] A3  a3 |a3  a2d'|e'3 e3 |a3  a2z|
[V:1] cea cea|cea edc|Bdg Bdg|edc BA^G|
[V:2] a3  a3 |a3  A3 |G3  G3 |G3  g2e |
[V:1] AcA BdB|cec def|edc dcB|cAA A2|]
[V:2] a3 ^g3 |a3  d3 |e3  E3 |A3  A2|]
% The above code was written using Phil Taylor's BarFly abc reader/converter/player program.
% Other abc converters (e.g. abc2ps) may require everything after the word "bass" to be
% deleted in the V:2 header line for correct display of notes the bass clef, or require that
% the M: and K: fields be repeated directly under the V:1 header line to display the meter
% and key signature on both staffs.  Some abc MIDI players (e.g. abc2midi) will not play
% multiple-voiced abc code.  -SW
